source/img/flowOut.svg

<svg width="80" height="80" viewBox="0 0 80 80" fill="none" xmlns="http://www.w3.org/2000/svg">
<path d="M37.62 30.9945L38.4545 30.1093V35.4956C38.4545 35.8935 38.6174 36.2752 38.9072 36.5566C39.197 36.8379 39.5901 36.996 40 36.996C40.4099 36.996 40.803 36.8379 41.0928 36.5566C41.3826 36.2752 41.5455 35.8935 41.5455 35.4956V30.1093L42.38 30.9345C42.5203 31.0883 42.6916 31.2125 42.8834 31.2994C43.0751 31.3863 43.2832 31.4341 43.4948 31.4397C43.7063 31.4453 43.9168 31.4087 44.1132 31.3321C44.3095 31.2556 44.4876 31.1406 44.6364 30.9945C44.7812 30.855 44.8962 30.6891 44.9746 30.5062C45.0531 30.3234 45.0935 30.1273 45.0935 29.9292C45.0935 29.7312 45.0531 29.5351 44.9746 29.3522C44.8962 29.1694 44.7812 29.0035 44.6364 28.864L41.0973 25.4281C40.9503 25.2915 40.777 25.1844 40.5873 25.113C40.211 24.963 39.789 24.963 39.4127 25.113C39.223 25.1844 39.0497 25.2915 38.9027 25.4281L35.3636 28.804C35.0644 29.0944 34.8963 29.4884 34.8963 29.8992C34.8963 30.31 35.0644 30.704 35.3636 30.9945C35.6628 31.285 36.0687 31.4482 36.4918 31.4482C36.915 31.4482 37.3208 31.285 37.62 30.9945ZM40 39.9967C39.083 39.9967 38.1866 40.2607 37.4242 40.7553C36.6617 41.2499 36.0675 41.9529 35.7166 42.7754C35.3656 43.5978 35.2738 44.5029 35.4527 45.376C35.6316 46.2491 36.0732 47.0512 36.7216 47.6806C37.37 48.3101 38.1961 48.7388 39.0955 48.9125C39.9949 49.0862 40.9271 48.997 41.7743 48.6564C42.6214 48.3157 43.3455 47.7388 43.855 46.9986C44.3644 46.2584 44.6364 45.3881 44.6364 44.4979C44.6364 43.3041 44.1479 42.1592 43.2784 41.3151C42.4089 40.471 41.2296 39.9967 40 39.9967ZM40 45.9982C39.6943 45.9982 39.3955 45.9102 39.1414 45.7454C38.8872 45.5805 38.6892 45.3462 38.5722 45.072C38.4552 44.7979 38.4246 44.4962 38.4842 44.2052C38.5439 43.9141 38.6911 43.6468 38.9072 43.4369C39.1233 43.2271 39.3987 43.0842 39.6985 43.0263C39.9983 42.9684 40.309 42.9981 40.5914 43.1117C40.8738 43.2253 41.1152 43.4176 41.285 43.6643C41.4548 43.911 41.5455 44.2011 41.5455 44.4979C41.5455 44.8958 41.3826 45.2774 41.0928 45.5588C40.803 45.8402 40.4099 45.9982 40 45.9982ZM29.1818 44.4979C29.1818 44.7946 29.2725 45.0847 29.4423 45.3314C29.6121 45.5782 29.8535 45.7705 30.1359 45.884C30.4182 45.9976 30.729 46.0273 31.0288 45.9694C31.3286 45.9115 31.6039 45.7686 31.8201 45.5588C32.0362 45.349 32.1834 45.0816 32.243 44.7906C32.3027 44.4995 32.2721 44.1979 32.1551 43.9237C32.0381 43.6495 31.84 43.4152 31.5859 43.2504C31.3317 43.0855 31.0329 42.9975 30.7273 42.9975C30.3174 42.9975 29.9243 43.1556 29.6345 43.4369C29.3446 43.7183 29.1818 44.0999 29.1818 44.4979ZM50.8182 44.4979C50.8182 44.2011 50.7275 43.911 50.5577 43.6643C50.3879 43.4176 50.1465 43.2253 49.8641 43.1117C49.5818 42.9981 49.271 42.9684 48.9712 43.0263C48.6714 43.0842 48.3961 43.2271 48.1799 43.4369C47.9638 43.6468 47.8166 43.9141 47.757 44.2052C47.6973 44.4962 47.7279 44.7979 47.8449 45.072C47.9619 45.3462 48.16 45.5805 48.4141 45.7454C48.6683 45.9102 48.9671 45.9982 49.2727 45.9982C49.6826 45.9982 50.0757 45.8402 50.3655 45.5588C50.6554 45.2774 50.8182 44.8958 50.8182 44.4979ZM52.3636 33.9953H46.1818C45.7719 33.9953 45.3788 34.1533 45.089 34.4347C44.7992 34.7161 44.6364 35.0977 44.6364 35.4956C44.6364 35.8935 44.7992 36.2752 45.089 36.5566C45.3788 36.8379 45.7719 36.996 46.1818 36.996H52.3636C52.7735 36.996 53.1666 37.1541 53.4564 37.4354C53.7463 37.7168 53.9091 38.0984 53.9091 38.4964V50.4994C53.9091 50.8973 53.7463 51.2789 53.4564 51.5603C53.1666 51.8417 52.7735 51.9997 52.3636 51.9997H27.6364C27.2265 51.9997 26.8334 51.8417 26.5436 51.5603C26.2537 51.2789 26.0909 50.8973 26.0909 50.4994V38.4964C26.0909 38.0984 26.2537 37.7168 26.5436 37.4354C26.8334 37.1541 27.2265 36.996 27.6364 36.996H33.8182C34.2281 36.996 34.6212 36.8379 34.911 36.5566C35.2008 36.2752 35.3636 35.8935 35.3636 35.4956C35.3636 35.0977 35.2008 34.7161 34.911 34.4347C34.6212 34.1533 34.2281 33.9953 33.8182 33.9953H27.6364C26.4067 33.9953 25.2274 34.4695 24.358 35.3136C23.4885 36.1577 23 37.3026 23 38.4964V50.4994C23 51.6931 23.4885 52.838 24.358 53.6821C25.2274 54.5263 26.4067 55.0005 27.6364 55.0005H52.3636C53.5933 55.0005 54.7726 54.5263 55.642 53.6821C56.5115 52.838 57 51.6931 57 50.4994V38.4964C57 37.3026 56.5115 36.1577 55.642 35.3136C54.7726 34.4695 53.5933 33.9953 52.3636 33.9953Z" fill="url(#paint0_linear)"/>
<rect x="1.5" y="1.5" width="77" height="77" rx="38.5" stroke="url(#paint1_linear)" stroke-width="3"/>
<defs>
<linearGradient id="paint0_linear" x1="22.6694" y1="24.5309" x2="61.724" y2="31.1743" gradientUnits="userSpaceOnUse">
<stop stop-color="#0068EC"/>
<stop offset="1" stop-color="#00BBF9"/>
</linearGradient>
<linearGradient id="paint1_linear" x1="-0.77778" y1="-1.25228" x2="91.6912" y2="12.6267" gradientUnits="userSpaceOnUse">
<stop stop-color="#0068EC"/>
<stop offset="1" stop-color="#00BBF9"/>
</linearGradient>
</defs>
</svg>

<svg width="80" height="80" fill="none" xmlns="http://www.w3.org/2000/svg">
  <path d="m37.62 30.994.835-.885v5.387c0 .398.162.78.452 1.06.29.282.683.44 1.093.44.41 0 .803-.158 1.093-.44.29-.28.452-.662.452-1.06v-5.387l.835.825c.14.154.312.278.503.365a1.583 1.583 0 0 0 1.753-.305 1.462 1.462 0 0 0 0-2.13l-3.539-3.436a1.552 1.552 0 0 0-.51-.315 1.59 1.59 0 0 0-1.174 0c-.19.071-.363.178-.51.315l-3.54 3.376c-.299.29-.467.684-.467 1.095 0 .411.168.805.468 1.095.299.291.705.454 1.128.454a1.62 1.62 0 0 0 1.128-.454ZM40 39.998c-.917 0-1.813.264-2.576.758a4.532 4.532 0 0 0-1.707 2.02 4.378 4.378 0 0 0-.264 2.601c.179.873.62 1.675 1.269 2.305a4.681 4.681 0 0 0 2.373 1.232c.9.173 1.832.084 2.68-.257A4.61 4.61 0 0 0 43.854 47c.51-.74.781-1.61.781-2.501a4.436 4.436 0 0 0-1.358-3.183A4.708 4.708 0 0 0 40 39.997Zm0 6.001c-.306 0-.605-.088-.859-.253a1.51 1.51 0 0 1-.569-.673 1.46 1.46 0 0 1-.088-.867c.06-.29.207-.558.423-.768a1.56 1.56 0 0 1 .792-.41 1.571 1.571 0 0 1 1.586.637 1.47 1.47 0 0 1-.192 1.895A1.57 1.57 0 0 1 40 46Zm-10.818-1.5c0 .297.09.587.26.833.17.247.412.44.694.553a1.583 1.583 0 0 0 1.684-.325c.216-.21.363-.477.423-.768a1.46 1.46 0 0 0-.088-.867 1.51 1.51 0 0 0-.57-.674 1.579 1.579 0 0 0-1.95.187c-.29.281-.453.663-.453 1.06Zm21.636 0c0-.297-.09-.587-.26-.834a1.537 1.537 0 0 0-.694-.552 1.588 1.588 0 0 0-.893-.086c-.3.058-.575.201-.791.41-.216.21-.363.478-.423.77-.06.29-.03.592.088.866.117.274.315.508.57.673a1.58 1.58 0 0 0 1.95-.186 1.48 1.48 0 0 0 .453-1.061Zm1.546-10.503h-6.182c-.41 0-.803.158-1.093.44-.29.281-.453.663-.453 1.06 0 .399.163.78.453 1.062.29.28.683.439 1.093.439h6.182c.41 0 .803.158 1.092.44.29.28.453.662.453 1.06V50.5c0 .398-.163.78-.453 1.061a1.57 1.57 0 0 1-1.092.44H27.636a1.57 1.57 0 0 1-1.092-.44 1.478 1.478 0 0 1-.453-1.06V38.495c0-.398.163-.78.453-1.06a1.57 1.57 0 0 1 1.092-.44h6.182c.41 0 .803-.158 1.093-.44.29-.28.453-.662.453-1.06s-.163-.78-.453-1.061a1.57 1.57 0 0 0-1.093-.44h-6.182c-1.23 0-2.409.474-3.278 1.319A4.436 4.436 0 0 0 23 38.496V50.5c0 1.194.488 2.339 1.358 3.183a4.707 4.707 0 0 0 3.278 1.319h24.728c1.23 0 2.409-.475 3.278-1.319A4.435 4.435 0 0 0 57 50.5V38.496a4.436 4.436 0 0 0-1.358-3.182 4.708 4.708 0 0 0-3.278-1.319Z" fill="url(#a)"/>
  <rect x="1.5" y="1.5" width="77" height="77" rx="38.5" stroke="url(#b)" stroke-width="3"/>
  <defs>
    <linearGradient id="a" x1="22.669" y1="24.531" x2="61.724" y2="31.174" gradientUnits="userSpaceOnUse">
      <stop stop-color="#0068EC"/>
      <stop offset="1" stop-color="#00BBF9"/>
    </linearGradient>
    <linearGradient id="b" x1="-.778" y1="-1.252" x2="91.691" y2="12.627" gradientUnits="userSpaceOnUse">
      <stop stop-color="#0068EC"/>
      <stop offset="1" stop-color="#00BBF9"/>
    </linearGradient>
  </defs>
</svg>
